app/icons/sprout.svg

﻿<svg xmlns="http://www.w3.org/2000/svg" xmlns:xlink="http://www.w3.org/1999/xlink" viewBox="0 0 50 50" version="1.1" width="50" height="50">
<g id="surface1">
<path style=" " d="M 33.75 0 C 30.84375 0.0898438 26.386719 0.660156 23.875 3.75 C 22.949219 4.890625 22.386719 6.121094 22.15625 7.28125 C 21.925781 8.441406 21.996094 9.597656 22.65625 10.46875 C 23.421875 11.476563 24.535156 11.800781 25.625 11.78125 C 25.167969 13.523438 24.933594 15.40625 24.8125 17.375 C 24.566406 21.347656 24.800781 25.644531 24.90625 29.75 C 24.308594 28.542969 23.578125 27.429688 22.6875 26.40625 C 22.289063 25.949219 21.832031 25.511719 21.375 25.09375 C 22.308594 24.289063 22.898438 23.085938 22.6875 21.625 C 22.199219 18.21875 18.054688 14.066406 10.40625 15.1875 C 7.535156 15.609375 4.191406 17.019531 0.5 19.1875 C 0.1875 19.375 0 19.71875 0.015625 20.082031 C 0.0273438 20.445313 0.238281 20.773438 0.5625 20.9375 C 1.085938 21.1875 1.746094 22.046875 2.40625 23.28125 C 3.066406 24.515625 3.757813 26.050781 4.625 27.5625 C 5.492188 29.074219 6.546875 30.582031 8.0625 31.625 C 9.578125 32.667969 11.546875 33.21875 13.9375 32.875 C 16.734375 32.472656 18.792969 31.144531 19.96875 29.5625 C 20.476563 28.878906 20.769531 28.164063 20.90625 27.4375 C 20.996094 27.535156 21.101563 27.621094 21.1875 27.71875 C 23.734375 30.648438 24.867188 34.550781 24.96875 39.3125 C 22.898438 39.816406 21.0625 40.914063 19.625 42.40625 C 18.605469 41.59375 17.410156 41 16 41 C 14.300781 41 12.875 41.828125 11.78125 42.96875 C 10.972656 42.410156 10.054688 42 9 42 C 7.40625 42 6.097656 42.863281 5.1875 44.03125 C 5.117188 44.027344 5.082031 44 5 44 C 2.25 44 0 46.25 0 49 C -0.00390625 49.359375 0.183594 49.695313 0.496094 49.878906 C 0.808594 50.058594 1.191406 50.058594 1.503906 49.878906 C 1.816406 49.695313 2.003906 49.359375 2 49 C 2 47.332031 3.332031 46 5 46 C 5.070313 46 5.207031 46.003906 5.40625 46.03125 C 5.808594 46.082031 6.207031 45.886719 6.40625 45.53125 C 6.921875 44.609375 7.871094 44 9 44 C 9.84375 44 10.609375 44.347656 11.15625 44.90625 C 11.367188 45.113281 11.664063 45.21875 11.957031 45.1875 C 12.253906 45.15625 12.523438 44.996094 12.6875 44.75 C 13.40625 43.6875 14.613281 43 16 43 C 17.195313 43 18.257813 43.535156 19 44.375 C 19.195313 44.585938 19.46875 44.703125 19.757813 44.699219 C 20.042969 44.691406 20.316406 44.5625 20.5 44.34375 C 22.152344 42.308594 24.671875 41 27.5 41 C 29.082031 41 30.550781 41.40625 31.84375 42.125 C 32.195313 42.316406 32.625 42.277344 32.9375 42.03125 C 33.785156 41.378906 34.847656 41 36 41 C 38.347656 41 40.296875 42.617188 40.84375 44.78125 C 40.917969 45.074219 41.117188 45.316406 41.390625 45.445313 C 41.664063 45.570313 41.980469 45.570313 42.25 45.4375 C 42.796875 45.167969 43.378906 45 44 45 C 46.21875 45 48 46.78125 48 49 C 47.996094 49.359375 48.183594 49.695313 48.496094 49.878906 C 48.808594 50.058594 49.191406 50.058594 49.503906 49.878906 C 49.816406 49.695313 50.003906 49.359375 50 49 C 50 45.699219 47.300781 43 44 43 C 43.410156 43 42.90625 43.214844 42.375 43.375 C 41.324219 40.835938 38.910156 39 36 39 C 34.621094 39 33.363281 39.464844 32.28125 40.15625 C 30.824219 39.445313 29.226563 39 27.5 39 C 27.320313 39 27.144531 39.023438 26.96875 39.03125 C 26.949219 38.40625 26.898438 37.789063 26.84375 37.1875 C 26.867188 37.097656 26.878906 37 26.875 36.90625 C 26.875 33.929688 27.617188 31.832031 29.28125 30.5625 C 29.589844 30.328125 29.949219 30.121094 30.34375 29.9375 C 30.28125 30.46875 30.332031 31.027344 30.5 31.59375 C 30.9375 33.0625 32.207031 34.503906 34.28125 34.875 C 36.863281 35.335938 38.960938 34.25 40.46875 33.03125 C 41.222656 32.421875 41.855469 31.773438 42.375 31.25 C 42.894531 30.726563 43.363281 30.328125 43.5 30.25 C 43.96875 29.976563 44.132813 29.382813 43.875 28.90625 C 43.25 27.714844 42.335938 26.25 40.875 25.0625 C 39.414063 23.875 37.410156 23 34.78125 23 C 33.539063 23 32.488281 23.210938 31.65625 23.65625 C 30.824219 24.101563 30.210938 24.855469 30.0625 25.75 C 29.929688 26.554688 30.109375 27.203125 30.375 27.75 C 29.507813 28.046875 28.730469 28.460938 28.0625 28.96875 C 27.625 29.300781 27.246094 29.683594 26.90625 30.09375 C 26.804688 25.8125 26.539063 21.421875 26.78125 17.5 C 26.855469 16.304688 27 15.175781 27.1875 14.09375 C 27.339844 14.207031 27.484375 14.3125 27.65625 14.40625 C 29.113281 15.183594 31.183594 15.257813 32.9375 13.875 C 37.324219 10.410156 37 3.949219 37 1 C 37 0.449219 36.550781 0 36 0 C 35.503906 0 34.71875 -0.03125 33.75 0 Z M 34.9375 2.09375 C 34.917969 5.238281 34.757813 9.882813 31.71875 12.28125 C 30.5625 13.191406 29.46875 13.089844 28.59375 12.625 C 28.179688 12.40625 27.882813 12.105469 27.6875 11.8125 C 27.882813 11.152344 28.109375 10.515625 28.375 9.9375 C 29.328125 7.871094 30.753906 6.347656 32.96875 5.40625 C 33.496094 5.234375 33.78125 4.667969 33.609375 4.140625 C 33.4375 3.613281 32.871094 3.328125 32.34375 3.5 C 32.289063 3.515625 32.238281 3.539063 32.1875 3.5625 C 29.511719 4.699219 27.679688 6.710938 26.5625 9.125 C 26.460938 9.347656 26.371094 9.582031 26.28125 9.8125 C 26.207031 9.824219 26.132813 9.847656 26.0625 9.875 C 25.34375 10.152344 24.886719 10.09375 24.25 9.25 C 24.089844 9.039063 23.9375 8.476563 24.09375 7.6875 C 24.25 6.898438 24.703125 5.933594 25.4375 5.03125 C 27.601563 2.367188 32.402344 2.128906 34.9375 2.09375 Z M 13.0625 17 C 18.210938 17.074219 20.46875 20.160156 20.71875 21.90625 C 20.875 22.984375 20.542969 23.605469 19.96875 23.9375 C 17.003906 21.800781 13.015625 20.378906 7.875 19.78125 C 7.769531 19.765625 7.667969 19.765625 7.5625 19.78125 C 7.011719 19.796875 6.578125 20.261719 6.59375 20.8125 C 6.609375 21.363281 7.074219 21.796875 7.625 21.78125 C 12.691406 22.367188 16.375 23.753906 19.03125 25.75 C 19.214844 26.355469 19.089844 27.371094 18.34375 28.375 C 17.507813 29.5 15.984375 30.542969 13.65625 30.875 C 11.6875 31.15625 10.328125 30.753906 9.1875 29.96875 C 8.046875 29.183594 7.136719 27.976563 6.34375 26.59375 C 5.550781 25.210938 4.90625 23.683594 4.1875 22.34375 C 3.773438 21.570313 3.28125 20.882813 2.75 20.28125 C 5.78125 18.625 8.542969 17.46875 10.6875 17.15625 C 11.542969 17.03125 12.328125 16.988281 13.0625 17 Z M 34.78125 25 C 36.980469 25 38.472656 25.691406 39.625 26.625 C 40.546875 27.375 41.191406 28.296875 41.71875 29.1875 C 41.476563 29.410156 41.226563 29.585938 40.96875 29.84375 C 40.445313 30.371094 39.859375 30.949219 39.21875 31.46875 C 37.9375 32.503906 36.53125 33.242188 34.65625 32.90625 C 34.644531 32.90625 34.636719 32.90625 34.625 32.90625 C 33.261719 32.664063 32.699219 31.90625 32.4375 31.03125 C 32.21875 30.300781 32.414063 29.554688 32.53125 29.28125 C 34.066406 29.039063 35.988281 29.082031 38.40625 29.46875 C 38.773438 29.558594 39.15625 29.433594 39.402344 29.148438 C 39.648438 28.863281 39.710938 28.460938 39.566406 28.113281 C 39.421875 27.765625 39.09375 27.527344 38.71875 27.5 C 36.277344 27.109375 34.171875 27.035156 32.40625 27.28125 C 32.371094 27.285156 32.347656 27.308594 32.3125 27.3125 C 32.054688 26.96875 31.9375 26.636719 32.03125 26.0625 C 32.074219 25.808594 32.175781 25.628906 32.59375 25.40625 C 33.011719 25.183594 33.765625 25 34.78125 25 Z "/>
</g>
</svg>

<?xml version="1.0" encoding="utf-8"?>
<!-- Generator: Adobe Illustrator 17.0.0, SVG Export Plug-In . SVG Version: 6.00 Build 0)  -->
<!DOCTYPE svg PUBLIC "-//W3C//DTD SVG 1.1//EN" "http://www.w3.org/Graphics/SVG/1.1/DTD/svg11.dtd">
<svg version="1.1" id="Layer_1" xmlns="http://www.w3.org/2000/svg" xmlns:xlink="http://www.w3.org/1999/xlink" x="0px" y="0px"
	 width="50px" height="50px" viewBox="0 0 50 50" enable-background="new 0 0 50 50" xml:space="preserve">
<path d="M44,43c-0.59,0-1.094,0.215-1.625,0.375C41.324,40.836,38.91,39,36,39c-1.379,0-2.637,0.465-3.719,1.156
	C30.824,39.445,29.227,39,27.5,39c-0.18,0-0.355,0.023-0.531,0.031c-0.02-0.625-0.07-1.242-0.125-1.844
	c0.023-0.09,0.035-0.188,0.031-0.281c0-2.977,0.742-5.074,2.406-6.344c0.309-0.234,0.668-0.441,1.063-0.625
	c-0.063,0.531-0.012,1.09,0.156,1.656c0.438,1.469,1.707,2.91,3.781,3.281c2.582,0.461,4.68-0.625,6.188-1.844
	c0.754-0.609,1.387-1.258,1.906-1.781s0.988-0.922,1.125-1c0.469-0.273,0.633-0.867,0.375-1.344c-0.625-1.191-1.539-2.656-3-3.844
	S37.41,23,34.781,23c-1.242,0-2.293,0.211-3.125,0.656s-1.445,1.199-1.594,2.094c-0.133,0.805,0.047,1.453,0.313,2
	c-0.867,0.297-1.645,0.711-2.313,1.219c-0.438,0.332-0.816,0.715-1.156,1.125c-0.102-4.281-0.367-8.672-0.125-12.594
	c0.074-1.195,0.219-2.324,0.406-3.406c0.152,0.113,0.297,0.219,0.469,0.313c1.457,0.777,3.527,0.852,5.281-0.531
	C37.324,10.41,37,3.949,37,1c0-0.551-0.449-1-1-1c-0.496,0-1.281-0.031-2.25,0c-2.906,0.09-7.363,0.66-9.875,3.75
	c-0.926,1.141-1.488,2.371-1.719,3.531s-0.16,2.316,0.5,3.188c0.766,1.008,1.879,1.332,2.969,1.313
	c-0.457,1.742-0.691,3.625-0.813,5.594c-0.246,3.973-0.012,8.27,0.094,12.375c-0.598-1.207-1.328-2.32-2.219-3.344
	c-0.398-0.457-0.855-0.895-1.313-1.313c0.934-0.805,1.523-2.008,1.313-3.469c-0.488-3.406-4.633-7.559-12.281-6.438
	c-2.871,0.422-6.215,1.832-9.906,4c-0.313,0.188-0.5,0.531-0.484,0.895c0.012,0.363,0.223,0.691,0.547,0.855
	c0.523,0.25,1.184,1.109,1.844,2.344s1.352,2.77,2.219,4.281s1.922,3.02,3.438,4.063s3.484,1.594,5.875,1.25
	c2.797-0.402,4.855-1.73,6.031-3.313c0.508-0.684,0.801-1.398,0.938-2.125c0.09,0.098,0.195,0.184,0.281,0.281
	c2.547,2.93,3.68,6.832,3.781,11.594c-2.07,0.504-3.906,1.602-5.344,3.094C18.605,41.594,17.41,41,16,41
	c-1.699,0-3.125,0.828-4.219,1.969C10.973,42.41,10.055,42,9,42c-1.594,0-2.902,0.863-3.813,2.031C5.117,44.027,5.082,44,5,44
	c-2.75,0-5,2.25-5,5c-0.004,0.359,0.184,0.695,0.496,0.879c0.313,0.18,0.695,0.18,1.008,0C1.816,49.695,2.004,49.359,2,49
	c0-1.668,1.332-3,3-3c0.07,0,0.207,0.004,0.406,0.031c0.402,0.051,0.801-0.145,1-0.5C6.922,44.609,7.871,44,9,44
	c0.844,0,1.609,0.348,2.156,0.906c0.211,0.207,0.508,0.313,0.801,0.281c0.297-0.031,0.566-0.191,0.73-0.438
	C13.406,43.688,14.613,43,16,43c1.195,0,2.258,0.535,3,1.375c0.195,0.211,0.469,0.328,0.758,0.324
	c0.285-0.008,0.559-0.137,0.742-0.355c1.652-2.035,4.172-3.344,7-3.344c1.582,0,3.051,0.406,4.344,1.125
	c0.352,0.191,0.781,0.152,1.094-0.094C33.785,41.379,34.848,41,36,41c2.348,0,4.297,1.617,4.844,3.781
	c0.074,0.293,0.273,0.535,0.547,0.664c0.273,0.125,0.59,0.125,0.859-0.008C42.797,45.168,43.379,45,44,45c2.219,0,4,1.781,4,4
	c-0.004,0.359,0.184,0.695,0.496,0.879c0.313,0.18,0.695,0.18,1.008,0c0.313-0.184,0.5-0.52,0.496-0.879C50,45.699,47.301,43,44,43z
	 M32.031,26.063c0.043-0.254,0.145-0.434,0.563-0.656S33.766,25,34.781,25c2.199,0,3.691,0.691,4.844,1.625
	c0.922,0.75,1.566,1.672,2.094,2.563c-0.242,0.223-0.492,0.398-0.75,0.656c-0.523,0.527-1.109,1.105-1.75,1.625
	c-1.281,1.035-2.688,1.773-4.563,1.438c-0.012,0-0.02,0-0.031,0c-1.363-0.242-1.926-1-2.188-1.875
	c-0.219-0.73-0.023-1.477,0.094-1.75c1.535-0.242,3.457-0.199,5.875,0.188c0.367,0.09,0.75-0.035,0.996-0.32
	s0.309-0.688,0.164-1.035s-0.473-0.586-0.848-0.613c-2.441-0.391-4.547-0.465-6.313-0.219c-0.035,0.004-0.059,0.027-0.094,0.031
	C32.055,26.969,31.938,26.637,32.031,26.063z M19.969,23.938c-2.965-2.137-6.953-3.559-12.094-4.156
	c-0.105-0.016-0.207-0.016-0.313,0c-0.551,0.016-0.984,0.48-0.969,1.031s0.48,0.984,1.031,0.969
	c5.066,0.586,8.75,1.973,11.406,3.969c0.184,0.605,0.059,1.621-0.688,2.625c-0.836,1.125-2.359,2.168-4.688,2.5
	c-1.969,0.281-3.328-0.121-4.469-0.906s-2.051-1.992-2.844-3.375s-1.438-2.91-2.156-4.25c-0.414-0.773-0.906-1.461-1.438-2.063
	c3.031-1.656,5.793-2.813,7.938-3.125c0.855-0.125,1.641-0.168,2.375-0.156c5.148,0.074,7.406,3.16,7.656,4.906
	C20.875,22.984,20.543,23.605,19.969,23.938z M26.281,9.813c-0.074,0.012-0.148,0.035-0.219,0.063
	c-0.719,0.277-1.176,0.219-1.813-0.625c-0.16-0.211-0.313-0.773-0.156-1.563s0.609-1.754,1.344-2.656
	c2.164-2.664,6.965-2.902,9.5-2.938c-0.02,3.145-0.18,7.789-3.219,10.188c-1.156,0.91-2.25,0.809-3.125,0.344
	c-0.414-0.219-0.711-0.52-0.906-0.813c0.195-0.66,0.422-1.297,0.688-1.875c0.953-2.066,2.379-3.59,4.594-4.531
	c0.527-0.172,0.813-0.738,0.641-1.266S32.871,3.328,32.344,3.5c-0.055,0.016-0.105,0.039-0.156,0.063
	c-2.676,1.137-4.508,3.148-5.625,5.563C26.461,9.348,26.371,9.582,26.281,9.813z"/>
</svg>
